X: 35700
T: Saint Anne's
R: reel
M: 4/4
K: Dmajor
|:fedf edcB|A2FA DAFA|B2GB EBGB|A2FA DAFA|
fedf edcB|A2FA DAFA|B2 GB c2 Ac|eddc d2 de:|
|:f3g fedc|Bggf g3f|edcB ABce|baa^g abag|
f3g fedc|Bggf g3f|edcB ABcd|eddc d2 de:|

